X:1
T:Wiegenlied
T:Schubert, Franz
T:シューベルト：子守唄 作品98の2、D.498
T:Op. 98, No. 2
T:Wiegenlied
T:Studio KonKon © 2019 (DRPDM) Digital Re-scoring of Public Domain Music free to reuse, edit and modify without permission
C:Schubert, Franz
Z:Studio KonKon © 2019
Z:(DRPDM) Digital Re-scoring of Public Domain Music
Z:free to reuse, edit and modify without permission
%%score 1 { ( 2 4 5 ) | ( 3 6 ) }
L:1/8
Q:1/4=43
M:4/4
K:Ab
V:1 treble nm="Vocal"
V:2 treble nm="Piano"
V:4 treble 
V:5 treble 
V:3 bass 
V:6 bass 
V:1
"^Langsam" (c>c e2) (B>c d2) | (cc B/A/ G/A/ B2 E2) | (c>c e2) (B>c d2) | (cc B/c/ d/B/ A2) z2 | %4
w: ね む れ ね む れ|は は の ー む ー ね に|ね む れ ね む れ|は は の ー て ー に|
w: ね む れ ね む れ|は は の ー む ー ね に|ね む れ ね む れ|は は の ー て ー に|
w: ね む れ ね む れ|か わ い ー わ ー が こ|ひ と よ い ね て|さ め て ー み ー よ|
 (B3 B c>B A2) | (e2{fe} d)(c B2 E2) | (c2 e2) (B>c d2) | (cc B/c/ d/B/ A2) z2 | z8 | z8 :| %10
w: こ こ ろ よ に|う た ご え に|む す ば ず や|た の し ー ゆ ー め|||
w: あ た た か き|そ の そ で に|つ つ ま れ て|ね む れ ー よ ー や|||
w: く れ な い の|ば ら の は な|ひ ら く ぞ よ|ま く ら ー べ ー に|||
V:2
 ([Ac]E[Ac]E [Gd]E[GB]E) | ([Ac]E[Ac]E [Gd]E[Gd]E) | [Ac]E[Ac]E [Gd]E[GB]E | %3
 [Ac]E [GB]2 [CA]E [CA]2 | [EGB]2 [EGB][EGB] ([Ac]>[GB] A2) | ([Ee]2 [Gd][Ac]) (B3 =B) | %6
 [Ac]E[Ac]E [Gd]E[G_B]E | [Ac]E [GB]2 [CA]E[CA]e | e4 e4 | e4 e4 :| %10
V:3
!ped! [A,,A,]4!ped-up!!ped! [E,,E,]4!ped-up! |!ped! [A,,A,]4!ped-up!!ped! [E,,E,]4!ped-up! | %2
!ped! [A,,A,]4!ped-up!!ped! [E,,E,]4!ped-up! | %3
!ped! [A,,A,]2!ped-up!!ped! E,2!ped-up!!ped! A,,4!ped-up! | %4
!ped! E,2 E,E,!ped-up!!ped! (A,>E,!ped-up!!ped! C,2)!ped-up! | %5
!ped! (C2!ped-up!!ped! B,A,)!ped-up!!ped! E,4!ped-up! | %6
!ped! [A,,A,]4!ped-up!!ped! [E,,E,]4!ped-up! | %7
!ped! [A,,A,]2!ped-up!!ped! E,2!ped-up!!ped! A,,4!ped-up! | %8
!ped! (DEB,E)!ped-up!!ped! (CECE)!ped-up! |!ped! (DEB,E)!ped-up!!ped! (CE C2)!ped-up! :| %10
V:4
 x8 | x8 | x8 | x2 DE x4 | x4 E4 | E4 [EG]4 | x8 | x2 DE x4 | !>!G4 (Ac e2) | !>!G4 (Ac A2) :| %10
V:5
 x8 | x8 | x8 | x8 | x8 | x8 | x8 | x8 | B2 (d/c/d/B/) x4 | B2 (d/c/d/B/) x4 :| %10
V:6
 x8 | x8 | x8 | x8 | x8 | x8 | x8 | x8 | A,4 A,4 | A,4 A,4 :| %10

